X:1
T:Ye Shall Be My Witnesses
T:James M. Kirk (1854-1945)
T:Ye Shall Be My Witnesses
T:Public Domain
T:Public Domain
T:Public Domain
C:James M. Kirk (1854-1945)
Z:Public Domain
%%score ( 1 2 ) ( 3 4 )
L:1/8
M:4/4
K:G
V:1 treble 
V:2 treble 
V:3 bass 
V:4 bass 
V:1
 [DB]>[DB] [CA]>[DB] [DG]>[B,D] [B,D]>[B,D] | %1
w: 1.~“Ye shall be My wit- ness- es,” was|
w: 2.~Je- sus has com- mis- sioned you and|
w: 3.~God has said be of good cour- age,|
w: 4.~Hear the suff- ’ring mill- ions cry- ing|
 [CE]>[DF] [EG]>[CE] [B,D]3 [B,D][DG]>[DG][DG]>[DA][GB]>[GB][GB]>[DG] | %2
w: Je- sus’ last com- mand, To ev- ery kin- dred tongue and tribe, in|
w: me to go or send, A mes- sen- ger in His dear name, His|
w: nei- ther be a- fraid, Though mount- ains seem to hedge the way, He|
w: for the liv- ing bread, When Christ was here His words were, “Let the|
 [DA]>[DA] [Dc]>[DB] [DA]3 [DG][GB]>[GB][GB]>[GB][Gd]>[Gd][Gd]>[DB] | [EG]>[EG] [EG]>[CE] [B,D]4 || %4
w: ev- ery clime and land; Go, tell them of our Christ and say His|king- dom is at hand,|
w: glor- ious cross de- fend; And He has prom- ised to be with us,|e- ven to the end,|
w: says be un- dis- mayed; For Je- sus is our cap- tain and will|al- ways be our aid,|
w: mul- ti- tudes be fed.” Then haste wher- ev- er man is found, for|all His blood was shed,|
"^Refrain" [B,G]>[B,G] [DG]>[FA] [GB] [Gd]2 [DB] | [CA]4 [B,G]2 B>c | (z2 G>G G2) B>c | %7
w: |||
w: Who will go and wit- ness for|Je- sus? Tell it|* * * out, tell|
w: |||
w: |||
 z2 G>G G2 (B>c) | [Gd]>[Gd] [Ge]>[Gd] [FA]2 A>B | (z2 F>F F2) A>B | z2 F>F F2 [DB]2 | %11
w: ||||
w: * * * out, *|bless- èd Gos- pel sound, Tell it|* * * out, tell|* * * out,|
w: ||||
w: ||||
 [FA]>[Fd] [A^c]>[Ge] [Fd]2 D>[B,D] | [B,G]>[B,G] [B,G]>[CA] [DB]>[DB] [DA]>[DG] | %13
w: ||
w: * news the world a- round, Till|name of Je- sus has been heard wher-|
w: ||
w: ||
 [Ec]>[Ec] [Ec]>[Ec] [Ec]4 | [B,D]>[B,D] [B,G]>[CA] [DB] [Gd]2 [DB] | [CA]4 [B,G]6 |] %16
w: |||
w: ev- er man is found,|Who will go and wit- ness for|Je- sus?|
w: |||
w: |||
V:2
 x8 | x16 | x16 | x8 || x8 | x8 | d6 x2 | (d6 D2) | x8 | c6 x2 | c6 x2 | x6 D3/2 x/ | x8 | x8 | %14
w: ||||||||||||||
w: ||||||it|the *||it|the|the|||
 x8 | x10 |] %16
w: ||
w: ||
V:3
 [G,,G,]>[G,,G,] [G,,G,]>[G,,G,] [G,,G,]>[G,,G,] [G,,G,]>[G,,G,] | %1
 [C,G,]>[C,C] [C,C]>[C,G,] [G,,G,]3 [G,,G,][G,B,]>[G,B,][G,B,]>[G,C][G,D]>[G,D][G,D]>[G,B,] | %2
 [D,F,]>[D,F,] [D,A,]>[D,G,] [D,F,]3 [G,B,][G,D]>[G,D][G,D]>[G,D][G,B,]>[G,B,][G,B,]>G, | %3
 [C,E]>[C,E] [C,E]>[C,G,] [G,,G,]4 || [G,,G,]>[G,,G,] [B,,G,]>[D,F,] G, [G,B,]2 [D,G,] | %5
 [D,F,]4 [G,,G,]2 G,>A, | z2 G,>G, G,2 G,>A, | z2 G,>G, G,2 (G,>A,) | %8
 [G,B,]>[G,B,] [G,C]>[G,B,] D2 F,>G, | (z2 D,>D, D,2) F,>G, | z2 D,>D, D,2 G,2 | %11
 A,>A, A,>A, [D,A,]2 [D,G,]>[D,F,] | %12
 [G,,D,]>[G,,D,] [G,,D,]>[G,,D,] [G,,G,]>[G,,G,] [A,,F,]>[B,,G,] | %13
 [C,G,]>[C,G,] [C,G,]>[C,G,] [C,G,]4 | [D,G,]>[D,G,] [D,G,]>[D,F,] [D,G,] [D,B,]2 [D,G,] | %15
 [D,F,]4 [G,,G,]6 |] %16
V:4
 x8 | x16 | x31/2 G,/ | x8 || x4 G, x3 | x8 | B,4 x4 | (B,6 G,2) | x8 | A,6 x2 | (A,6 G,2) | %11
 A,>A, A,>A, x4 | x8 | x8 | x8 | x10 |] %16

